icons/svg/book-open-page-variant.svg

﻿<?xml version="1.0" encoding="utf-8"?>
<!DOCTYPE svg PUBLIC "-//W3C//DTD SVG 1.1//EN" "http://www.w3.org/Graphics/SVG/1.1/DTD/svg11.dtd">
<svg xmlns="http://www.w3.org/2000/svg" xmlns:xlink="http://www.w3.org/1999/xlink" version="1.1" baseProfile="full" width="24" height="24" viewBox="0 0 24.00 24.00" enable-background="new 0 0 24.00 24.00" xml:space="preserve">
	<path fill="#000000" fill-opacity="1" stroke-width="1.33333" stroke-linejoin="miter" d="M 19,2L 14,6.5L 14,17.5L 19,13L 19,2 Z M 6.5,5C 4.55,5 2.45,5.4 1,6.5L 1,21.1562C 1,21.4062 1.25,21.6562 1.5,21.6562C 1.6,21.6562 1.65,21.5942 1.75,21.5942C 3.1,20.9442 5.05,20.5005 6.5,20.5005C 8.45,20.5005 10.55,20.9005 12,22.0005C 13.35,21.1505 15.8,20.5005 17.5,20.5005C 19.15,20.5005 20.85,20.813 22.25,21.563C 22.35,21.613 22.4,21.594 22.5,21.594C 22.75,21.594 23,21.344 23,21.094L 23,6.5002C 22.4,6.0503 21.75,5.7502 21,5.5002L 21,7.5002L 21,13.0002L 21,19.0002C 19.9,18.6503 18.7,18.5002 17.5,18.5002C 15.8,18.5002 13.35,19.1503 12,20.0002L 12,13.0002L 12,8.5002L 12,6.5002C 10.55,5.4003 8.45,5.0002 6.5,5.0002L 6.5,5 Z "/>
</svg>

<svg xmlns="http://www.w3.org/2000/svg" version="1.1" baseProfile="full" width="24" height="24" viewBox="0 0 24.00 24.00" xml:space="preserve"><path fill="#000" fill-opacity="1" stroke-width="1.333" stroke-linejoin="miter" d="M19 2l-5 4.5v11l5-4.5V2zM6.5 5C4.55 5 2.45 5.4 1 6.5v14.656c0 .25.25.5.5.5.1 0 .15-.062.25-.062 1.35-.65 3.3-1.094 4.75-1.094 1.95 0 4.05.4 5.5 1.5 1.35-.85 3.8-1.5 5.5-1.5 1.65 0 3.35.313 4.75 1.063.1.05.15.03.25.03.25 0 .5-.25.5-.5V6.5c-.6-.45-1.25-.75-2-1V19c-1.1-.35-2.3-.5-3.5-.5-1.7 0-4.15.65-5.5 1.5V6.5C10.55 5.4 8.45 5 6.5 5z"/></svg>
